X: 083
T: Miss Lindsay's Reel
R: reel
M: C|
L: 1/8
Z: 2012 John Chambers <jc:trillian.mit.edu>
B: J. Anderson "Budget of Strathspeys, Reels and Country Dances" (Early 1800s) p.8 #3
F: http://imslp.org/wiki/Anderson%27s_Budget_of_Strathspeys,_Reels_and_Country_Dances_(Various)
K: C
a |\
gc (c/d/e/).d/ cAAc | Gc Ec GEEa | gc (c/d/e/)d/ cAAc | Gc Ee edc :|
a |\
(ge)(ea) (ge)(ea) | (ge)(eg) gaec' | (ge).e.f (ge).e.g | c'age d2(de) |
geef geec' | (ge).e.f gaec' | ac'ga egde | Ac (A/G/)(F/E/) EDD |]

%%sep 2 1 500
%%sep 1 1 500

